!!!!SEGMENT: pl-stab--9b--001-001_rodowski-aleksander--vespere-de-confessoribus-domine-ad-adjuvandum.krn
!!!cenid: 18xx:3468
!!!COM: Rodowski, Aleksander
!!!COM-rismid: pe30009627
!!!CDT: <1790->1810
!!!CNT: Polish
!!!OPR: Vespere de Confessoribus
!!!OTL: Domine ad adjuvandum
!!!OMV: 001
!!!PDT:
!!!AGN: Sacred; Vespers
!!!SMS-siglum: PL-STAb
!!!SMS-shelfmark: 9b
!!!SMS-shelfwork: 001-001 M
!!!SMS-variant:
!!!SMS-altvar:
!!!NIFC-rismid: 301050672
!!!URL-scan: https://repozytorium.nifc.pl/islandora/object/pl-stab%3A2141/datastream/PDF/view
!!!ONB-nifc: UWAGA: części Nieszporów: 1. Domine ad adjuvandum, 2. Dixit Dominus, 3. De torrente, 4. Laudate pueri, 5. Magnificat, 6. Salve Regina
!!!AIN: 1 bass 2 clars 2 cor 1 organ 1 soprn 2 violn
!!!key: C
**kern	**fba	**dynam	**kern	**dynam	**kern	**dynam	**kern	**text	**kern	**text	**text	**kern	**kern	**kern	**kern
*	*	*	*group4	*	*group4	*	*group3	*	*group3	*	*	*group2	*group2	*group1	*group1
*part9	*part9	*part9	*part8	*part8	*part7	*part7	*part6	*part6	*part5	*part5	*part5	*part4	*part3	*part2	*part1
*staff9	*	*	*staff8	*	*staff7	*	*staff6	*staff6	*staff5	*staff5	*staff5	*staff4	*staff3	*staff2	*staff1
*I"Organo	*	*	*I"Violino Secundo	*	*I"Violino Primo	*	*I"Baſso	*	*I"Canto.	*	*	*I"Corno II	*I"Corno I	*I"Clarinetto Secundo	*I"Clarinetto Primo
*I'org	*	*	*I'vl 2	*	*I'vl 1	*	*I'B	*	*I'S	*	*	*I'cor 2	*I'cor 1	*I'cl 2	*I'cl 1
*Iorgan	*	*	*Ivioln	*	*Ivioln	*	*Ibass	*	*Isoprn	*	*	*Icor	*Icor	*Iclars	*Iclars
*ICklav	*	*	*ICstr	*	*ICstr	*	*ICvox	*	*ICvox	*	*	*ICbras	*ICbras	*ICww	*ICww
*IGcont	*	*	*	*	*	*	*	*	*	*	*	*	*	*	*
*clefF4	*	*	*clefG2	*	*clefG2	*	*clefF4	*	*clefC1	*	*	*clefG2	*clefG2	*clefG2	*clefG2
*k[]	*	*	*k[]	*	*k[]	*	*k[]	*	*k[]	*	*	*k[]	*k[]	*k[]	*k[]
*C:	*	*	*C:	*	*C:	*	*C:	*	*C:	*	*	*C:	*C:	*C:	*C:
*M4/4	*	*	*M4/4	*	*M4/4	*	*M4/4	*	*M4/4	*	*	*M4/4	*M4/4	*M4/4	*M4/4
*met(c)	*	*	*met(c)	*	*met(c)	*	*met(c)	*	*met(c)	*	*	*met(c)	*met(c)	*met(c)	*met(c)
*2\right	*	*	*2\right	*	*2\right	*	*2\right	*	*2\right	*	*	*	*	*2\right	*2\right
=1	=1	=1	=1	=1	=1	=1	=1	=1	=1	=1	=1	=1	=1	=1	=1
!LO:TX:a:i:t=Allegro	!	!LO:DY:a:t=for&colon;	!LO:TX:a:i:t=allegro	!LO:DY:a:t=for	!LO:TX:a:i:t=allegro	!LO:DY:a:t=for	!LO:TX:a:i:t=Allegro Moderato	!	!LO:TX:a:i:t=Allegro Moderato	!	!	!	!	!LO:TX:a:i:t=Allegro	!LO:TX:a:i:t=Allegro
!	!	!	!	!	!	!	!	!	!	!	!LO:TX:t=P:problem=tekst mszalnego "Kyrie" zapisany ołówkiem	!	!	!	!
!	!	!	!	!	!	!	!	!	!	!	!	!	!	!LO:TX:b:i:t=1. Kyrie:note=zapis ołówkiem	!
8CC/L	.	f	4cc 4e 4G/	f	4cc 4e 4G/	f	2c\	Do-	2cc\	Do-	Ky-	1ryy	1ryy	4cc\	4ee\
8C/	.	.	.	.	.	.	.	.	.	.	.	.	.	.	.
8C/	.	.	4cc 4e 4G/	.	4cc 4e 4G/	.	.	.	.	.	.	.	.	4cc\	4ee\
8C/J	.	.	.	.	.	.	.	.	.	.	.	.	.	.	.
*tremolo	*	*	*	*	*	*	*	*	*	*	*	*	*	*	*
8C/L	.	.	4cc 4e 4G/	.	4cc 4e 4G/	.	2c\	-mi-	2cc\	-mi-	-ri-	.	.	4cc\	4ee\
8C/	.	.	.	.	.	.	.	.	.	.	.	.	.	.	.
.	.	.	.	.	8qqdd/	.	.	.	.	.	.	.	.	.	.
8C/	.	.	16e/LL	.	16cc\LL	.	.	.	.	.	.	.	.	8cc\L	8ee\L
.	.	.	16d/	.	16b\	.	.	.	.	.	.	.	.	.	.
8C/J	.	.	16e/	.	16cc\	.	.	.	.	.	.	.	.	8dd\J	8ff\J
.	.	.	16f/JJ	.	16dd\JJ	.	.	.	.	.	.	.	.	.	.
=2	=2	=2	=2	=2	=2	=2	=2	=2	=2	=2	=2	=2	=2	=2	=2
8C/L	.	.	8g/L	.	8ee\L	.	2c\	-ne	2cc\	-ne	-e	1ryy	1ryy	4ee\	4gg\
8C/	.	.	8e/	.	8cc\	.	.	.	.	.	.	.	.	.	.
8C/	.	.	8e/	.	8g\	.	.	.	.	.	.	.	.	4r	4r
8C/J	.	.	8c/J	.	8e\J	.	.	.	.	.	.	.	.	.	.
8E\L	.	.	8G/L	.	8c/L	.	2r	.	2r	.	.	.	.	2r	2r
8E\	.	.	8c/	.	8e/	.	.	.	.	.	.	.	.	.	.
8E\	.	.	8e/	.	8g/	.	.	.	.	.	.	.	.	.	.
8E\J	.	.	8g/J	.	8cc/J	.	.	.	.	.	.	.	.	.	.
=3	=3	=3	=3	=3	=3	=3	=3	=3	=3	=3	=3	=3	=3	=3	=3
*	*	*	*tremolo	*	*	*	*	*	*	*	*	*	*	*	*
8F\L	.	.	16aLL 16f/	.	4a/	.	4F\	ad	4a\	ad	e-	1ryy	1ryy	4f/	4a/
.	.	.	16a 16f/	.	.	.	.	.	.	.	.	.	.	.	.
8F\	.	.	16a 16f/	.	.	.	.	.	.	.	.	.	.	.	.
.	.	.	16a 16f/	.	.	.	.	.	.	.	.	.	.	.	.
8F\	.	.	16a 16f/	.	4ff 4a/	.	4A\	ad-	4ff\	ad-	.	.	.	4a/	4ff\
.	.	.	16a 16f/	.	.	.	.	.	.	.	.	.	.	.	.
8F\J	.	.	16a 16f/	.	.	.	.	.	.	.	.	.	.	.	.
.	.	.	16aJJ 16f/	.	.	.	.	.	.	.	.	.	.	.	.
8G\L	.	.	16bLL 16d/	.	4b 4d/	.	4G\	-iu-	4dd\	-iu-	-lei-	.	.	4g/	4b/
.	.	.	16b 16d/	.	.	.	.	.	.	.	.	.	.	.	.
8G\	.	.	16b 16d/	.	.	.	.	.	.	.	.	.	.	.	.
.	.	.	16b 16d/	.	.	.	.	.	.	.	.	.	.	.	.
8G\	.	.	16b 16d/	.	4gg 4b/	.	4GG/	-van-	4b\	-van-	.	.	.	4b/	4gg\
.	.	.	16b 16d/	.	.	.	.	.	.	.	.	.	.	.	.
8G\J	.	.	16b 16d/	.	.	.	.	.	.	.	.	.	.	.	.
.	.	.	16bJJ 16d/	.	.	.	.	.	.	.	.	.	.	.	.
*Xtremolo	*	*	*Xtremolo	*	*	*	*	*	*	*	*	*	*	*	*
=4	=4	=4	=4	=4	=4	=4	=4	=4	=4	=4	=4	=4	=4	=4	=4
4c\	.	.	8ccL 8e 8G/	.	8ee\L	.	4C/	-dum	4ee\	-dum	-son	1ryy	1ryy	4cc\	4ee\
.	.	.	8g/	.	8cc\	.	.	.	.	.	.	.	.	.	.
4r	.	.	8e/	.	8g\	.	4r	.	4r	.	.	.	.	4r	4r
.	.	.	8c/J	.	8e\J	.	.	.	.	.	.	.	.	.	.
2r	.	.	8G/L	.	8c/L	.	2r	.	2r	.	.	.	.	2r	2r
.	.	.	8c/	.	8e/	.	.	.	.	.	.	.	.	.	.
.	.	.	8e/	.	8g/	.	.	.	.	.	.	.	.	.	.
.	.	.	8g/J	.	8cc/J	.	.	.	.	.	.	.	.	.	.
=5	=5	=5	=5	=5	=5	=5	=5	=5	=5	=5	=5	=5	=5	=5	=5
*tremolo	*	*	*tremolo	*	*	*	*	*	*	*	*ij	*	*	*	*
8F\L	.	.	16aLL 16f/	.	4a/	.	4F\	me	4a\	me	e-	1ryy	1ryy	4f/	4a/
.	.	.	16a 16f/	.	.	.	.	.	.	.	.	.	.	.	.
8F\	.	.	16a 16f/	.	.	.	.	.	.	.	.	.	.	.	.
.	.	.	16a 16f/	.	.	.	.	.	.	.	.	.	.	.	.
8F\	.	.	16a 16f/	.	4ff 4a/	.	4A\	fe-	4ff\	fe-	.	.	.	4a/	4ff\
.	.	.	16a 16f/	.	.	.	.	.	.	.	.	.	.	.	.
8F\J	.	.	16a 16f/	.	.	.	.	.	.	.	.	.	.	.	.
.	.	.	16aJJ 16f/	.	.	.	.	.	.	.	.	.	.	.	.
8G\L	.	.	16bLL 16d/	.	4b 4d/	.	2G\	-sti-	(4dd\	-sti-	-lei-	.	.	4g/	4b/
.	.	.	16b 16d/	.	.	.	.	.	.	.	.	.	.	.	.
8G\	.	.	16b 16d/	.	.	.	.	.	.	.	.	.	.	.	.
.	.	.	16b 16d/	.	.	.	.	.	.	.	.	.	.	.	.
8G\	.	.	16b 16d/	.	4gg 4b/	.	.	.	4b\)	.	.	.	.	4b/	4gg\
.	.	.	16b 16d/	.	.	.	.	.	.	.	.	.	.	.	.
8G\J	.	.	16b 16d/	.	.	.	.	.	.	.	.	.	.	.	.
.	.	.	16bJJ 16d/	.	.	.	.	.	.	.	.	.	.	.	.
*Xtremolo	*	*	*Xtremolo	*	*	*	*	*	*	*	*	*	*	*	*
=6	=6	=6	=6	=6	=6	=6	=6	=6	=6	=6	=6	=6	=6	=6	=6
4C/	.	.	4cc 4e 4G/	.	4ee 4cc/	.	4C/	-na	4cc\	-na	-son	1ryy	1ryy	4cc\	4ee\
*	*	*	*	*	*	*	*	*	*	*	*Xij	*	*	*	*
4C/	.	.	4cc 4e 4G/	.	4cc 4e 4G/	.	4r	.	4r	.	.	.	.	4cc\	4ee\
4C/	.	.	4cc 4e 4G/	.	4cc 4e 4G/	.	2r	.	2r	.	.	.	.	4cc\	4ee\
4r	.	.	4r	.	4r	.	.	.	.	.	.	.	.	4r	4r
=7	=7	=7	=7	=7	=7	=7	=7	=7	=7	=7	=7	=7	=7	=7	=7
*tremolo	*	*	*	*	*	*	*	*	*	*	*	*	*	*	*
.	.	.	.	.	8qqcc/	.	.	.	.	.	.	.	.	.	.
*	*	*	*	*	*tremolo	*	*	*	*	*	*	*	*	*	*
8C\L	5_ 3_	.	16c/LL	.	16ccc\LL	.	2c\	Do-	2ee\	Do-	Ky-	1ryy	1ryy	1cc	1ee
.	.	.	16e/	.	16ccc\	.	.	.	.	.	.	.	.	.	.
8C\	x x	.	16g/	.	16ccc\	.	.	.	.	.	.	.	.	.	.
.	.	.	16e/JJ	.	16ccc\JJ	.	.	.	.	.	.	.	.	.	.
*	*	*	*rep	*	*	*	*	*	*	*	*	*	*	*	*
8C\	x x	.	16c/LL	.	16gg\LL	.	.	.	.	.	.	.	.	.	.
.	.	.	16e/	.	16gg\	.	.	.	.	.	.	.	.	.	.
8C\J	x x	.	16g/	.	16gg\	.	.	.	.	.	.	.	.	.	.
.	.	.	16e/JJ	.	16gg\JJ	.	.	.	.	.	.	.	.	.	.
*	*	*	*Xrep	*	*	*	*	*	*	*	*	*	*	*	*
*	*	*	*rep	*	*	*	*	*	*	*	*	*	*	*	*
8C\L	x x	.	16c/LL	.	16ee\LL	.	4c\	-mi-	4ee\	-mi-	-ri-	.	.	.	.
.	.	.	16e/	.	16ee\	.	.	.	.	.	.	.	.	.	.
8C\	x x	.	16g/	.	16ee\	.	.	.	.	.	.	.	.	.	.
.	.	.	16e/JJ	.	16ee\JJ	.	.	.	.	.	.	.	.	.	.
*	*	*	*Xrep	*	*	*	*	*	*	*	*	*	*	*	*
*	*	*	*rep	*	*	*	*	*	*	*	*	*	*	*	*
8C\	x x	.	16c/LL	.	16cc\LL	.	4c\	-ne	4ee\	-ne	-e	.	.	.	.
.	.	.	16e/	.	16cc\	.	.	.	.	.	.	.	.	.	.
8C\J	x x	.	16g/	.	16cc\	.	.	.	.	.	.	.	.	.	.
.	.	.	16e/JJ	.	16cc\JJ	.	.	.	.	.	.	.	.	.	.
*	*	*	*Xrep	*	*Xtremolo	*	*	*	*	*	*	*	*	*	*
=8	=8	=8	=8	=8	=8	=8	=8	=8	=8	=8	=8	=8	=8	=8	=8
!	!	!	!LO:LB:g=original	!	!	!	!	!	!	!	!	!	!	!	!
8D\L	4 3	.	16d/LL	.	8cc\L	.	8c\	ad	8ee\	ad	e-	1ryy	1ryy	8cc\L	8ee\L
.	.	.	16f/	.	.	.	.	.	.	.	.	.	.	.	.
8D\	.	.	16g/	.	8b\	.	8d\	ad-	8ff\	ad-	.	.	.	8dd\	8ff\
.	.	.	16f/JJ	.	.	.	.	.	.	.	.	.	.	.	.
*	*	*	*rep	*	*	*	*	*	*	*	*	*	*	*	*
8D\	.	.	16d/LL	.	8b\	.	8d\	-iu-	8ff\	-iu-	-lei-	.	.	8dd\	8ff\
.	.	.	16f/	.	.	.	.	.	.	.	.	.	.	.	.
8D\J	.	.	16g/	.	8b\J	.	8d\	-van-	8ff\	-van-	.	.	.	8dd\J	8ff\J
.	.	.	16f/JJ	.	.	.	.	.	.	.	.	.	.	.	.
*	*	*	*Xrep	*	*	*	*	*	*	*	*	*	*	*	*
*	*	*	*rep	*	*	*	*	*	*	*	*	*	*	*	*
8GG/L	7 3	.	16d/LL	.	16b\LL	.	4d\	-dum	4ff\	-dum	-son	.	.	4dd\	4ff\
.	.	.	16f/	.	16gg\	.	.	.	.	.	.	.	.	.	.
8GG/	.	.	16g/	.	16ff#X\	.	.	.	.	.	.	.	.	.	.
.	.	.	16f/JJ	.	16gg\JJ	.	.	.	.	.	.	.	.	.	.
*	*	*	*Xrep	*	*	*	*	*	*	*	*	*	*	*	*
*	*	*	*rep	*	*	*	*	*	*	*	*	*	*	*	*
8GG/	.	.	16d/LL	.	16aa\LL	.	4r	.	4r	.	.	.	.	4r	4r
.	.	.	16f/	.	16gg\	.	.	.	.	.	.	.	.	.	.
8GG/J	.	.	16g/	.	16ff#X\	.	.	.	.	.	.	.	.	.	.
.	.	.	16f/JJ	.	16gg\JJ	.	.	.	.	.	.	.	.	.	.
*	*	*	*Xrep	*	*	*	*	*	*	*	*	*	*	*	*
=9	=9	=9	=9	=9	=9	=9	=9	=9	=9	=9	=9	=9	=9	=9	=9
*	*	*	*	*	*tremolo	*	*	*	*	*	*	*	*	*	*
!	!	!	!	!	!	!	!	!	!LO:LB:g=original	!	!	!	!	!	!
.	.	.	.	.	8qqcc/	.	.	.	.	.	.	.	.	.	.
8C\L	5_ 3_	.	16c/LL	.	16ccc\LL	.	4c\	me	4ee\	me	.	1ryy	1ryy	1cc	1ee
.	.	.	16e/	.	16ccc\	.	.	.	.	.	.	.	.	.	.
8C\	x x	.	16g/	.	16ccc\	.	.	.	.	.	.	.	.	.	.
.	.	.	16e/JJ	.	16ccc\JJ	.	.	.	.	.	.	.	.	.	.
*	*	*	*rep	*	*	*	*	*	*	*	*	*	*	*	*
8C\	x x	.	16c/LL	.	16gg\LL	.	4c\	fe-	4ee\	fe-	Ky-	.	.	.	.
.	.	.	16e/	.	16gg\	.	.	.	.	.	.	.	.	.	.
8C\J	x x	.	16g/	.	16gg\	.	.	.	.	.	.	.	.	.	.
.	.	.	16e/JJ	.	16gg\JJ	.	.	.	.	.	.	.	.	.	.
*	*	*	*Xrep	*	*	*	*	*	*	*	*	*	*	*	*
*	*	*	*rep	*	*	*	*	*	*	*	*	*	*	*	*
8C\L	x x	.	16c/LL	.	16ee\LL	.	2c\	-sti-	2ee\	-sti-	-ri-	.	.	.	.
.	.	.	16e/	.	16ee\	.	.	.	.	.	.	.	.	.	.
8C\	x x	.	16g/	.	16ee\	.	.	.	.	.	.	.	.	.	.
.	.	.	16e/JJ	.	16ee\JJ	.	.	.	.	.	.	.	.	.	.
*	*	*	*Xrep	*	*	*	*	*	*	*	*	*	*	*	*
*	*	*	*rep	*	*	*	*	*	*	*	*	*	*	*	*
8C\	x x	.	16c/LL	.	16cc\LL	.	.	.	.	.	.	.	.	.	.
.	.	.	16e/	.	16cc\	.	.	.	.	.	.	.	.	.	.
8C\J	x x	.	16g/	.	16cc\	.	.	.	.	.	.	.	.	.	.
.	.	.	16e/JJ	.	16cc\JJ	.	.	.	.	.	.	.	.	.	.
*	*	*	*Xrep	*	*Xtremolo	*	*	*	*	*	*	*	*	*	*
=10	=10	=10	=10	=10	=10	=10	=10	=10	=10	=10	=10	=10	=10	=10	=10
!	!	!	!	!	!	!	!LO:LB:g=original	!	!	!	!	!	!	!	!
8D\L	4 3	.	16d/LL	.	8cc\L	.	8c\	-na	8ee\	-na	-e	1ryy	1ryy	8cc\L	8ee\L
.	.	.	16f/	.	.	.	.	.	.	.	.	.	.	.	.
8D\	.	.	16g/	.	8b\	.	8d\	me	8ff\	me	e-	.	.	8dd\	8ff\
.	.	.	16f/JJ	.	.	.	.	.	.	.	.	.	.	.	.
*	*	*	*rep	*	*	*	*	*	*	*	*	*	*	*	*
8D\	.	.	16d/LL	.	8b\	.	8d\	fe-	8ff\	fe-	-lei-	.	.	8dd\	8ff\
.	.	.	16f/	.	.	.	.	.	.	.	.	.	.	.	.
8D\J	.	.	16g/	.	8b\J	.	8d\	-sti-	8ff\	-sti-	.	.	.	8dd\J	8ff\J
.	.	.	16f/JJ	.	.	.	.	.	.	.	.	.	.	.	.
*	*	*	*Xrep	*	*	*	*	*	*	*	*	*	*	*	*
*	*	*	*rep	*	*	*	*	*	*	*	*	*	*	*	*
8GG/L	7 3	.	16d/LL	.	16b\LL	.	4d\	-na	4ff\	-na	-son	.	.	4dd\	4ff\
.	.	.	16f/	.	16gg\	.	.	.	.	.	.	.	.	.	.
8GG/	.	.	16g/	.	16ff#X\	.	.	.	.	.	.	.	.	.	.
.	.	.	16f/JJ	.	16gg\JJ	.	.	.	.	.	.	.	.	.	.
*	*	*	*Xrep	*	*	*	*	*	*	*	*	*	*	*	*
*	*	*	*rep	*	*	*	*	*	*	*	*	*	*	*	*
8GG/	.	.	16d/LL	.	16aa\LL	.	4r	.	4r	.	.	.	.	4r	4r
.	.	.	16f/	.	16gg\	.	.	.	.	.	.	.	.	.	.
8GG/J	.	.	16g/	.	16ff#X\	.	.	.	.	.	.	.	.	.	.
.	.	.	16f/JJ	.	16gg\JJ	.	.	.	.	.	.	.	.	.	.
*	*	*	*Xrep	*	*	*	*	*	*	*	*	*	*	*	*
=11	=11	=11	=11	=11	=11	=11	=11	=11	=11	=11	=11	=11	=11	=11	=11
*	*	*	*tremolo	*	*	*	*	*	*	*	*	*	*	*	*
8C\L	.	.	16ccLL 16e/	.	8ee\L	.	2c\	Do-	2ee\	Do-	e-	1ryy	1ryy	2cc\	2ee\
.	.	.	16cc 16e/	.	.	.	.	.	.	.	.	.	.	.	.
8C\	.	.	16cc 16e/	.	8cc\J	.	.	.	.	.	.	.	.	.	.
.	.	.	16cc 16e/	.	.	.	.	.	.	.	.	.	.	.	.
8C\	.	.	16cc 16e/	.	8r	.	.	.	.	.	.	.	.	.	.
.	.	.	16cc 16e/	.	.	.	.	.	.	.	.	.	.	.	.
8C\J	.	.	16cc 16e/	.	8cc\	.	.	.	.	.	.	.	.	.	.
.	.	.	16ccJJ 16e/	.	.	.	.	.	.	.	.	.	.	.	.
8D\L	.	.	16ccLL 16f/	.	8ff\L	.	2B\	-mi-	2ff\	-mi-	-lei-	.	.	2cc\	2ff\
.	.	.	16cc 16f/	.	.	.	.	.	.	.	.	.	.	.	.
8D\	.	.	16cc 16f/	.	8cc\J	.	.	.	.	.	.	.	.	.	.
.	.	.	16cc 16f/	.	.	.	.	.	.	.	.	.	.	.	.
8D\	.	.	16cc 16f/	.	8r	.	.	.	.	.	.	.	.	.	.
.	.	.	16cc 16f/	.	.	.	.	.	.	.	.	.	.	.	.
8D\J	.	.	16cc 16f/	.	8cc\	.	.	.	.	.	.	.	.	.	.
.	.	.	16ccJJ 16f/	.	.	.	.	.	.	.	.	.	.	.	.
=12	=12	=12	=12	=12	=12	=12	=12	=12	=12	=12	=12	=12	=12	=12	=12
8E\L	.	.	16ccLL 16g/	.	8gg\L	.	4c\	-ne	4gg\	-ne	-son	1ryy	1ryy	2cc\	2gg\
.	.	.	16cc 16g/	.	.	.	.	.	.	.	.	.	.	.	.
8E\	.	.	16cc 16g/	.	8cc\J	.	.	.	.	.	.	.	.	.	.
.	.	.	16cc 16g/	.	.	.	.	.	.	.	.	.	.	.	.
8E\	.	.	16cc 16g/	.	8r	.	4r	.	4r	.	.	.	.	.	.
.	.	.	16cc 16g/	.	.	.	.	.	.	.	.	.	.	.	.
8E\J	.	.	16cc 16g/	.	8cc\	.	.	.	.	.	.	.	.	.	.
.	.	.	16ccJJ 16g/	.	.	.	.	.	.	.	.	.	.	.	.
8F\L	.	.	16ccLL 16a/	.	8aa\L	.	2r	.	2r	.	.	.	.	2cc\	2aa\
.	.	.	16cc 16a/	.	.	.	.	.	.	.	.	.	.	.	.
8F\	.	.	16cc 16a/	.	8cc\J	.	.	.	.	.	.	.	.	.	.
.	.	.	16cc 16a/	.	.	.	.	.	.	.	.	.	.	.	.
8F\	.	.	16cc 16a/	.	8r	.	.	.	.	.	.	.	.	.	.
.	.	.	16cc 16a/	.	.	.	.	.	.	.	.	.	.	.	.
8F\J	.	.	16cc 16a/	.	8cc\	.	.	.	.	.	.	.	.	.	.
.	.	.	16ccJJ 16a/	.	.	.	.	.	.	.	.	.	.	.	.
*	*	*	*Xtremolo	*	*	*	*	*	*	*	*	*	*	*	*
=13	=13	=13	=13	=13	=13	=13	=13	=13	=13	=13	=13	=13	=13	=13	=13
*	*	*	*tremolo	*	*tremolo	*	*	*	*	*	*	*	*	*	*
!LO:LB:g=original	!	!	!	!	!	!	!	!	!	!	!	!	!	!LO:LB:g=original	!LO:LB:g=original
8F#X\L	5 3	.	16cc\LL	.	16aa\LL	.	4c\	ad	4aa\	ad	e-	1ryy	1ryy	4cc\	4aa\
.	.	.	16cc\	.	16aa\	.	.	.	.	.	.	.	.	.	.
8F#\	.	.	16cc\	.	16aa\	.	.	.	.	.	.	.	.	.	.
.	.	.	16cc\JJ	.	16aa\JJ	.	.	.	.	.	.	.	.	.	.
8F#\	.	.	16a/LL	.	16ff#X\LL	.	8c\	ad-	8ff#X\	ad-	-e-	.	.	4a/	4ff#X\
.	.	.	16a/	.	16ff#\	.	.	.	.	.	.	.	.	.	.
8F#\J	.	.	16a/	.	16ff#\	.	8c\	-iu-	8ff#\	-iu-	.	.	.	.	.
.	.	.	16a/JJ	.	16ff#\JJ	.	.	.	.	.	.	.	.	.	.
8F#\L	.	.	16f#X/LL	.	16dd\LL	.	(4c\	-van-	(4dd\	-van-	-lei-	.	.	4f#X/	4dd\
.	.	.	16f#/	.	16dd\	.	.	.	.	.	.	.	.	.	.
8F#\	.	.	16f#/	.	16dd\	.	.	.	.	.	.	.	.	.	.
.	.	.	16f#/JJ	.	16dd\JJ	.	.	.	.	.	.	.	.	.	.
8F#\	.	.	16d/LL	.	16cc\LL	.	4A\)	.	4cc\)	.	.	.	.	4d/	4cc\
.	.	.	16d/	.	16cc\	.	.	.	.	.	.	.	.	.	.
8F#\J	.	.	16d/	.	16cc\	.	.	.	.	.	.	.	.	.	.
.	.	.	16d/JJ	.	16cc\JJ	.	.	.	.	.	.	.	.	.	.
*	*	*	*Xtremolo	*	*Xtremolo	*	*	*	*	*	*	*	*	*	*
=14	=14	=14	=14	=14	=14	=14	=14	=14	=14	=14	=14	=14	=14	=14	=14
8G\L	.	.	16G/LL	.	8cc\L	.	4G\	-dum	4b\	-dum	-son	1ryy	1ryy	8a/L	8cc\L
.	.	.	16d/	.	.	.	.	.	.	.	.	.	.	.	.
8G\	.	.	16B/	.	8b\	.	.	.	.	.	.	.	.	8g/	8b\
.	.	.	16d/JJ	.	.	.	.	.	.	.	.	.	.	.	.
*	*	*	*rep	*	*	*	*	*	*	*	*	*	*	*	*
8G\	.	.	16G/LL	.	8b\	.	4r	.	4r	.	.	.	.	8g/	8b\
.	.	.	16d/	.	.	.	.	.	.	.	.	.	.	.	.
8G\J	.	.	16B/	.	8b\J	.	.	.	.	.	.	.	.	8g/J	8b\J
.	.	.	16d/JJ	.	.	.	.	.	.	.	.	.	.	.	.
*	*	*	*Xrep	*	*	*	*	*	*	*	*	*	*	*	*
*	*	*	*rep	*	*	*	*	*	*	*	*	*	*	*	*
!	!	!	!	!	!LO:LB:g=original	!	!	!	!	!	!	!	!	!	!
8G\L	.	.	16G/LL	.	16b\LL	.	2r	.	2r	.	.	.	.	4g/	4b\
.	.	.	16d/	.	16gg\	.	.	.	.	.	.	.	.	.	.
8G\	.	.	16B/	.	16ff#X\	.	.	.	.	.	.	.	.	.	.
.	.	.	16d/JJ	.	16gg\JJ	.	.	.	.	.	.	.	.	.	.
*	*	*	*Xrep	*	*	*	*	*	*	*	*	*	*	*	*
*	*	*	*rep	*	*	*	*	*	*	*	*	*	*	*	*
8G\	.	.	16G/LL	.	16aa\LL	.	.	.	.	.	.	.	.	4r	4r
.	.	.	16d/	.	16gg\	.	.	.	.	.	.	.	.	.	.
8G\J	.	.	16B/	.	16ff#X\	.	.	.	.	.	.	.	.	.	.
.	.	.	16d/JJ	.	16gg\JJ	.	.	.	.	.	.	.	.	.	.
*	*	*	*Xrep	*	*	*	*	*	*	*	*	*	*	*	*
=15	=15	=15	=15	=15	=15	=15	=15	=15	=15	=15	=15	=15	=15	=15	=15
*	*	*	*	*	*tremolo	*	*	*	*	*	*ij	*	*	*	*
8F#X\L	.	.	16A/LL	.	16aa\LL	.	4c\	me	4aa\	me	e-	1ryy	1ryy	4cc\	4aa\
.	.	.	16d/	.	16aa\	.	.	.	.	.	.	.	.	.	.
8F#\	.	.	16c/	.	16aa\	.	.	.	.	.	.	.	.	.	.
.	.	.	16d/JJ	.	16aa\JJ	.	.	.	.	.	.	.	.	.	.
*	*	*	*rep	*	*	*	*	*	*	*	*	*	*	*	*
8F#\	.	.	16A/LL	.	16ff#X\LL	.	4c\	fe-	4ff#X\	fe-	.	.	.	4a/	4ff#X\
.	.	.	16d/	.	16ff#\	.	.	.	.	.	.	.	.	.	.
8F#\J	.	.	16c/	.	16ff#\	.	.	.	.	.	.	.	.	.	.
.	.	.	16d/JJ	.	16ff#\JJ	.	.	.	.	.	.	.	.	.	.
*	*	*	*Xrep	*	*	*	*	*	*	*	*	*	*	*	*
*	*	*	*rep	*	*	*	*	*	*	*	*	*	*	*	*
8F#\L	.	.	16A/LL	.	16dd\LL	.	(4c\	-sti-	(4dd\	-sti-	-lei-	.	.	4f#X/	4dd\
.	.	.	16d/	.	16dd\	.	.	.	.	.	.	.	.	.	.
8F#\	.	.	16c/	.	16dd\	.	.	.	.	.	.	.	.	.	.
.	.	.	16d/JJ	.	16dd\JJ	.	.	.	.	.	.	.	.	.	.
*	*	*	*Xrep	*	*	*	*	*	*	*	*	*	*	*	*
*	*	*	*rep	*	*	*	*	*	*	*	*	*	*	*	*
8F#\	.	.	16A/LL	.	16cc\LL	.	4A\)	.	4cc\)	.	.	.	.	4d/	4cc\
.	.	.	16d/	.	16cc\	.	.	.	.	.	.	.	.	.	.
8F#\J	.	.	16c/	.	16cc\	.	.	.	.	.	.	.	.	.	.
.	.	.	16d/JJ	.	16cc\JJ	.	.	.	.	.	.	.	.	.	.
*Xtremolo	*	*	*Xrep	*	*Xtremolo	*	*	*	*	*	*	*	*	*	*
=16	=16	=16	=16	=16	=16	=16	=16	=16	=16	=16	=16	=16	=16	=16	=16
!LO:TX:t=P:problem=mixed beam	!	!	!	!	!	!	!	!	!	!	!	!	!	!	!
8G\L	.	.	16B/LL	.	16b\LL	.	4G\	-na	4b\	-na	-son	1ryy	1ryy	8g/L	8b\L
*	*	*	*	*	*	*	*	*	*	*	*Xij	*	*	*	*
.	.	.	16B/	.	16b\	.	.	.	.	.	.	.	.	.	.
8GG/	.	.	16G/	.	16g\	.	.	.	.	.	.	.	.	8g/	8g\
.	.	.	16G/JJ	.	16g\JJ	.	.	.	.	.	.	.	.	.	.
!	!	!	!LO:LB:g=original	!	!	!	!	!	!	!	!	!	!	!	!
8AA/	.	.	16A/LL	.	16a\LL	.	4r	.	4r	.	.	.	.	8a/	8a\
.	.	.	16A/	.	16a\	.	.	.	.	.	.	.	.	.	.
8BB/J	.	.	16B/	.	16b\	.	.	.	.	.	.	.	.	8b/J	8b\J
.	.	.	16B/JJ	.	16b\JJ	.	.	.	.	.	.	.	.	.	.
8C\L	.	.	16c/LL	.	16cc\LL	.	2r	.	2r	.	.	.	.	8cc\L	8cc\L
.	.	.	16c/	.	16cc\	.	.	.	.	.	.	.	.	.	.
8D\	.	.	16d/	.	16dd\	.	.	.	.	.	.	.	.	8dd\	8dd\
.	.	.	16d/JJ	.	16dd\JJ	.	.	.	.	.	.	.	.	.	.
8E\	.	.	16e/LL	.	16ee\LL	.	.	.	.	.	.	.	.	8ee\	8ee\
.	.	.	16e/	.	16ee\	.	.	.	.	.	.	.	.	.	.
8F#X\J	.	.	16f#X/	.	16ff#X\	.	.	.	.	.	.	.	.	8ff#X\J	8ff#X\J
.	.	.	16f#/JJ	.	16ff#\JJ	.	.	.	.	.	.	.	.	.	.
=17	=17	=17	=17	=17	=17	=17	=17	=17	=17	=17	=17	=17	=17	=17	=17
*	*	*	*tremolo	*	*tremolo	*	*	*	*	*	*	*	*	*	*
!	!	!	!	!	!	!	!	!	!LO:LB:g=original	!	!	!	!	!	!
4G\	.	.	16g/LL	.	16gg\LL	.	4G\	me	4gg\	me	e-	1ryy	1ryy	4gg\	4gg\
.	.	.	16g/	.	16gg\	.	.	.	.	.	.	.	.	.	.
.	.	.	16g/	.	16gg\	.	.	.	.	.	.	.	.	.	.
.	.	.	16g/JJ	.	16gg\JJ	.	.	.	.	.	.	.	.	.	.
4E\	.	.	16e/LL	.	16ee\LL	.	4e\	fe-	4ee\	fe-	.	.	.	4ee\	4ee\
.	.	.	16e/	.	16ee\	.	.	.	.	.	.	.	.	.	.
.	.	.	16e/	.	16ee\	.	.	.	.	.	.	.	.	.	.
.	.	.	16e/JJ	.	16ee\JJ	.	.	.	.	.	.	.	.	.	.
4BB/	.	.	16B/LL	.	16b\LL	.	(4B\	-sti-	(4b\	-sti-	-lei-	.	.	4b\	4b\
.	.	.	16B/	.	16b\	.	.	.	.	.	.	.	.	.	.
.	.	.	16B/	.	16b\	.	.	.	.	.	.	.	.	.	.
.	.	.	16B/JJ	.	16b\JJ	.	.	.	.	.	.	.	.	.	.
4C#X/	.	.	16c#X/LL	.	16cc#X\LL	.	4c#X\)	.	4cc#X\)	.	.	.	.	4cc#X\	4cc#X\
.	.	.	16c#/	.	16cc#\	.	.	.	.	.	.	.	.	.	.
.	.	.	16c#/	.	16cc#\	.	.	.	.	.	.	.	.	.	.
.	.	.	16c#/JJ	.	16cc#\JJ	.	.	.	.	.	.	.	.	.	.
*	*	*	*Xtremolo	*	*Xtremolo	*	*	*	*	*	*	*	*	*	*
=18	=18	=18	=18	=18	=18	=18	=18	=18	=18	=18	=18	=18	=18	=18	=18
4D\	.	.	4d/	.	4dd 4f#X/	.	4d\	-na	4dd\	-na	-son	1ryy	1ryy	4dd\	4dd\
4D\	.	.	4f#X 4A/	.	4dd 4f#/	.	4r	.	4r	.	.	.	.	4dd\	4ff#X\
4D\	.	.	4f# 4A/	.	4dd 4f#/	.	2r	.	2r	.	.	.	.	4dd\	4dd\
4r	.	.	4r	.	4r	.	.	.	.	.	.	.	.	4r	4r
=19	=19	=19	=19	=19	=19	=19	=19	=19	=19	=19	=19	=19	=19	=19	=19
!	!	!LO:DY:a:t=p.	!	!	!	!	!	!	!	!	!	!	!	!	!
!	!	!	!	!	!	!LO:DY:b:t=pp&colon;	!	!	!	!	!	!	!	!	!
4G\	.	p	8r	.	8r	pp	1r	.	2dd\	Glo-	Ky-	1ryy	1ryy	1r	1r
!	!	!	!	!LO:DY:b:t=ppp&colon;	!	!	!	!	!	!	!	!	!	!	!
.	.	.	8g/L	ppp	8bL 8d/	.	.	.	.	.	.	.	.	.	.
4r	.	.	8g/	.	8b 8d/	.	.	.	.	.	.	.	.	.	.
.	.	.	8g/J	.	8bJ 8d/	.	.	.	.	.	.	.	.	.	.
4G\	.	.	8r	.	8r	.	.	.	8dd\L	-ri-	.	.	.	.	.
.	.	.	8g/L	.	8bL 8d/	.	.	.	8ee\J	.	.	.	.	.	.
4r	.	.	8g/	.	8b 8d/	.	.	.	8ff#X\L	-a	-ri-	.	.	.	.
.	.	.	8g/J	.	8bJ 8d/	.	.	.	8gg\J	.	.	.	.	.	.
=20	=20	=20	=20	=20	=20	=20	=20	=20	=20	=20	=20	=20	=20	=20	=20
4A\	6\	.	8r	.	8r	.	1r	.	(4gg\	Pa-	-e	1ryy	1ryy	1r	1r
.	.	.	8a/L	.	8ccL 8d/	.	.	.	.	.	.	.	.	.	.
4r	.	.	8a/	.	8cc 8d/	.	.	.	4ff#X\)	.	.	.	.	.	.
.	.	.	8a/J	.	8ccJ 8d/	.	.	.	.	.	.	.	.	.	.
!	!	!	!	!	!LO:LB:g=original	!	!	!	!	!	!	!	!	!	!
4A\	.	.	8r	.	8r	.	.	.	(4.ff#\	-tri	e-	.	.	.	.
.	.	.	8a/L	.	8ccL 8d/	.	.	.	.	.	.	.	.	.	.
4r	.	.	8a/	.	8cc 8d/	.	.	.	.	.	.	.	.	.	.
.	.	.	8a/J	.	8ccJ 8d/	.	.	.	8ee\)	.	.	.	.	.	.
=21	=21	=21	=21	=21	=21	=21	=21	=21	=21	=21	=21	=21	=21	=21	=21
4F#X\	6	.	8r	.	8r	.	1r	.	2dd\	Glo-	-lei-	1ryy	1ryy	1r	1r
.	.	.	8a/L	.	8ccL 8d/	.	.	.	.	.	.	.	.	.	.
4r	.	.	8a/	.	8cc 8d/	.	.	.	.	.	.	.	.	.	.
.	.	.	8a/J	.	8ccJ 8d/	.	.	.	.	.	.	.	.	.	.
4F#\	5	.	8r	.	8r	.	.	.	8dd\L	.	.	.	.	.	.
.	.	.	8a/L	.	8ccL 8d/	.	.	.	16cc\L	.	.	.	.	.	.
.	.	.	.	.	.	.	.	.	16dd\JJ	.	.	.	.	.	.
4r	.	.	8a/	.	8cc 8d/	.	.	.	8ee\L	-ri-	.	.	.	.	.
.	.	.	8a/J	.	8ccJ 8d/	.	.	.	16dd\L	-a	.	.	.	.	.
.	.	.	.	.	.	.	.	.	16cc\JJ	.	.	.	.	.	.
=22	=22	=22	=22	=22	=22	=22	=22	=22	=22	=22	=22	=22	=22	=22	=22
4G\	.	.	8r	.	8r	.	1r	.	4.cc\	fi-	.	1ryy	1ryy	1r	1r
.	.	.	8g/L	.	8bL 8d/	.	.	.	.	.	.	.	.	.	.
4r	.	.	8g/	.	8b 8d/	.	.	.	.	.	.	.	.	.	.
.	.	.	8g/J	.	8bJ 8d/	.	.	.	8b\	-li-	.	.	.	.	.
4G\	.	.	8r	.	8r	.	.	.	4b\	-o	-son	.	.	.	.
.	.	.	8d/L	.	8b/L	.	.	.	.	.	.	.	.	.	.
4r	.	.	8c/	.	8a/	.	.	.	4r	.	.	.	.	.	.
.	.	.	8B/J	.	8g/J	.	.	.	.	.	.	.	.	.	.
=23	=23	=23	=23	=23	=23	=23	=23	=23	=23	=23	=23	=23	=23	=23	=23
4BB/	6	.	8r	.	8r	.	1r	.	(4dd\	et	e-	1ryy	1ryy	1r	1r
.	.	.	8d/L	.	8g/L	.	.	.	.	.	.	.	.	.	.
4r	.	.	8d/	.	8g/	.	.	.	4b\)	.	.	.	.	.	.
.	.	.	8d/J	.	8g/J	.	.	.	.	.	.	.	.	.	.
!	!	!	!LO:LB:g=original	!	!	!	!	!	!	!	!	!	!	!	!
4BB/	.	.	8r	.	8r	.	.	.	(4a\	Spi-	-e-	.	.	.	.
.	.	.	8d/L	.	8g/L	.	.	.	.	.	.	.	.	.	.
4r	.	.	8d/	.	8g#X/	.	.	.	4g#X\)	.	.	.	.	.	.
.	.	.	8d/J	.	8g#/J	.	.	.	.	.	.	.	.	.	.
=24	=24	=24	=24	=24	=24	=24	=24	=24	=24	=24	=24	=24	=24	=24	=24
4C/	6	.	8r	.	8r	.	1r	.	(4.a\	-ri-	-lei-	1ryy	1ryy	1r	1r
.	.	.	8e/L	.	8a/L	.	.	.	.	.	.	.	.	.	.
4r	.	.	8e/	.	8a/	.	.	.	.	.	.	.	.	.	.
.	.	.	8e/J	.	8a/J	.	.	.	8b\)	.	.	.	.	.	.
4C/	.	.	8r	.	8r	.	.	.	4.cc\	-tu-	-son	.	.	.	.
.	.	.	8e/L	.	8a/L	.	.	.	.	.	.	.	.	.	.
4r	.	.	8e/	.	8a/	.	.	.	.	.	.	.	.	.	.
.	.	.	8e/J	.	8a/J	.	.	.	8dd\	-i	.	.	.	.	.
=25	=25	=25	=25	=25	=25	=25	=25	=25	=25	=25	=25	=25	=25	=25	=25
!	!	!	!	!	!	!	!	!	!LO:LB:g=original	!	!	!	!	!	!
4C/	.	.	8r	.	8r	.	1r	.	(4ee\	San-	e-	1ryy	1ryy	1r	1r
.	.	.	8e/L	.	8a/L	.	.	.	.	.	.	.	.	.	.
4r	.	.	8e/	.	8a/	.	.	.	4cc\	.	.	.	.	.	.
.	.	.	8e/J	.	8a/J	.	.	.	.	.	.	.	.	.	.
4C#X/	.	.	8r	.	8r	.	.	.	4a\	.	-lei-	.	.	.	.
.	.	.	8e/L	.	8gn/L	.	.	.	.	.	.	.	.	.	.
4r	.	.	8e/	.	8g/	.	.	.	4gn\)	.	.	.	.	.	.
.	.	.	8e/J	.	8g/J	.	.	.	.	.	.	.	.	.	.
=26	=26	=26	=26	=26	=26	=26	=26	=26	=26	=26	=26	=26	=26	=26	=26
!	!	!	!.	!	!	!	!	!	!LO:SIC:v:s=4f#/	!	!	!	!	!	!
!	!	!	!	!	!	!LO:DY:a:t=for	!	!	!	!	!	!	!	!	!
!LO:LB:g=original	!	!	!	!LO:DY:b:t=for.	!	!	!	!	!	!	!	!	!	!	!
4D\	.	.	16f#X/LL	f	16f#X/LL	f	1r	.	4f/	-cto	-son	1ryy	1ryy	1r	1r
.	.	.	16d/	.	16d/	.	.	.	.	.	.	.	.	.	.
.	.	.	16e/	.	16e/	.	.	.	.	.	.	.	.	.	.
.	.	.	16f#/JJ	.	16f#/JJ	.	.	.	.	.	.	.	.	.	.
!	!	!	!	!	!LO:LB:g=original	!	!	!	!	!	!	!	!	!	!
4D\	.	.	16g/LL	.	16g/LL	.	.	.	4r	.	.	.	.	.	.
.	.	.	16a/	.	16a/	.	.	.	.	.	.	.	.	.	.
.	.	.	16b/	.	16b/	.	.	.	.	.	.	.	.	.	.
.	.	.	16cc#X/JJ	.	16cc#X/JJ	.	.	.	.	.	.	.	.	.	.
4D\	.	.	8dd\L	.	8dd/L	.	.	.	2r	.	.	.	.	.	.
.	.	.	8ccn\	.	8ccn/	.	.	.	.	.	.	.	.	.	.
4r	.	.	8a\	.	8a/	.	.	.	.	.	.	.	.	.	.
.	.	.	8f#X\J	.	8f#X/J	.	.	.	.	.	.	.	.	.	.
=27	=27	=27	=27	=27	=27	=27	=27	=27	=27	=27	=27	=27	=27	=27	=27
!	!	!	!	!LO:DY:b:t=p.	!	!	!	!	!	!	!	!	!	!	!
4G\	.	.	8r	p	8r	.	1r	.	2.g/	Glo-	e-	1ryy	1ryy	1r	1r
!	!	!	!	!	!	!LO:DY:b:t=p&colon;	!	!	!	!	!	!	!	!	!
.	.	.	8dL 8B/	.	8g/L	p	.	.	.	.	.	.	.	.	.
4r	.	.	8d 8B/	.	8g/	.	.	.	.	.	.	.	.	.	.
.	.	.	8dJ 8B/	.	8g/J	.	.	.	.	.	.	.	.	.	.
4G\	.	.	8r	.	8r	.	.	.	.	.	.	.	.	.	.
.	.	.	8dL 8B/	.	8g/L	.	.	.	.	.	.	.	.	.	.
4r	.	.	8d 8B/	.	8g/	.	.	.	8a/	-ri-	.	.	.	.	.
.	.	.	8dJ 8B/	.	8g/J	.	.	.	8b/	-a	.	.	.	.	.
=28	=28	=28	=28	=28	=28	=28	=28	=28	=28	=28	=28	=28	=28	=28	=28
4A\	.	.	8r	.	8r	.	1r	.	8b\L	pa-	-lei-	1ryy	1ryy	1r	1r
.	.	.	8dL 8c/	.	8f#X/L	.	.	.	8a\J	.	.	.	.	.	.
4r	.	.	8d 8c/	.	8f#/	.	.	.	4a\	-tri	-son	.	.	.	.
.	.	.	8dJ 8c/	.	8f#/J	.	.	.	.	.	.	.	.	.	.
4A\	.	.	8r	.	8r	.	.	.	8r	.	.	.	.	.	.
.	.	.	8dL 8c/	.	8f#/L	.	.	.	8a\	glo-	e-	.	.	.	.
4r	.	.	8d 8c/	.	8f#/	.	.	.	8b\	-ri-	.	.	.	.	.
.	.	.	8dJ 8c/	.	8f#/J	.	.	.	8cc\	-a	.	.	.	.	.
=29	=29	=29	=29	=29	=29	=29	=29	=29	=29	=29	=29	=29	=29	=29	=29
4F#X\	.	.	8r	.	8r	.	1r	.	2.dd\	fi-	-lei-	1ryy	1ryy	1r	1r
.	.	.	8f#XL 8d/	.	8ccL 8d/	.	.	.	.	.	.	.	.	.	.
4r	.	.	8f# 8d/	.	8cc 8d/	.	.	.	.	.	.	.	.	.	.
.	.	.	8f#J 8d/	.	8ccJ 8d/	.	.	.	.	.	.	.	.	.	.
4F#\	.	.	8r	.	8r	.	.	.	.	.	.	.	.	.	.
.	.	.	8f#L 8d/	.	8ccL 8d/	.	.	.	.	.	.	.	.	.	.
4r	.	.	8f# 8d/	.	8cc 8d/	.	.	.	16dd\LL	-li-	.	.	.	.	.
.	.	.	.	.	.	.	.	.	(16cc\	.	.	.	.	.	.
.	.	.	8f#J 8d/	.	8ccJ 8d/	.	.	.	16b\)	.	.	.	.	.	.
.	.	.	.	.	.	.	.	.	16cc\JJ	.	.	.	.	.	.
=30	=30	=30	=30	=30	=30	=30	=30	=30	=30	=30	=30	=30	=30	=30	=30
!	!	!	!	!LO:DY:a:t=for	!	!LO:DY:a:t=for	!	!	!	!	!	!	!	!	!
4G\	.	.	16b\LL	f	16b\LL	f	1r	.	4b\	-o	-son	1ryy	1ryy	1r	1r
.	.	.	16g\	.	16g\	.	.	.	.	.	.	.	.	.	.
.	.	.	16a\	.	16a\	.	.	.	.	.	.	.	.	.	.
.	.	.	16b\JJ	.	16b\JJ	.	.	.	.	.	.	.	.	.	.
!	!	!	!LO:LB:g=original	!	!	!	!	!	!	!	!	!	!	!	!
4GG/	.	.	16cc\LL	.	16cc\LL	.	.	.	4r	.	.	.	.	.	.
.	.	.	16dd\	.	16dd\	.	.	.	.	.	.	.	.	.	.
.	.	.	16ee\	.	16ee\	.	.	.	.	.	.	.	.	.	.
.	.	.	16ff#X\JJ	.	16ff#X\JJ	.	.	.	.	.	.	.	.	.	.
4G\	.	.	8gg\L	.	8gg\L	.	.	.	2r	.	.	.	.	.	.
.	.	.	8ffn\	.	8ffn\	.	.	.	.	.	.	.	.	.	.
4r	.	.	8dd\	.	8dd\	.	.	.	.	.	.	.	.	.	.
.	.	.	8b\J	.	8b\J	.	.	.	.	.	.	.	.	.	.
=31	=31	=31	=31	=31	=31	=31	=31	=31	=31	=31	=31	=31	=31	=31	=31
!	!	!	!	!LO:DY:b:t=p.	!	!	!	!	!	!	!	!	!	!	!
4C/	.	.	8r	p	8r	.	1r	.	2.cc\	Et	e-	1ryy	1ryy	1r	1r
.	.	.	8g/L	.	8ccL 8e/	.	.	.	.	.	.	.	.	.	.
4r	.	.	8g/	.	8cc 8e/	.	.	.	.	.	.	.	.	.	.
.	.	.	8g/J	.	8ccJ 8e/	.	.	.	.	.	.	.	.	.	.
4C/	.	.	8r	.	8r	.	.	.	.	.	.	.	.	.	.
.	.	.	8g/L	.	8ccL 8e/	.	.	.	.	.	.	.	.	.	.
4r	.	.	8g/	.	8cc 8e/	.	.	.	8dd\L	spi-	.	.	.	.	.
.	.	.	8g/J	.	8ccJ 8e/	.	.	.	8ee\J	.	.	.	.	.	.
=32	=32	=32	=32	=32	=32	=32	=32	=32	=32	=32	=32	=32	=32	=32	=32
!	!	!	!	!	!LO:LB:g=original	!	!	!	!	!	!	!	!	!	!
4D/	.	.	8r	.	8r	.	1r	.	8ee\L	-ri-	-lei-	1ryy	1ryy	1r	1r
.	.	.	8g/L	.	8bL 8f/	.	.	.	8dd\J	.	.	.	.	.	.
!	!	!	!	!	!	!	!	!	!LO:LB:g=original	!	!	!	!	!	!
4r	.	.	8g/	.	8b 8f/	.	.	.	2dd\	-tu-	.	.	.	.	.
.	.	.	8g/J	.	8bJ 8f/	.	.	.	.	.	.	.	.	.	.
4D/	.	.	8r	.	8r	.	.	.	.	.	.	.	.	.	.
.	.	.	8g/L	.	8bL 8f/	.	.	.	.	.	.	.	.	.	.
4r	.	.	8g/	.	8b 8f/	.	.	.	8ee\L	-i	.	.	.	.	.
.	.	.	8g/J	.	8bJ 8f/	.	.	.	8ffn\J	.	.	.	.	.	.
=33	=33	=33	=33	=33	=33	=33	=33	=33	=33	=33	=33	=33	=33	=33	=33
4GG/	.	.	8r	.	8r	.	1r	.	2.gg\	San-	.	1ryy	1ryy	1r	1r
.	.	.	8g/L	.	8ddL 8f/	.	.	.	.	.	.	.	.	.	.
4r	.	.	8g/	.	8dd 8f/	.	.	.	.	.	.	.	.	.	.
.	.	.	8g/J	.	8ddJ 8f/	.	.	.	.	.	.	.	.	.	.
4BB/	.	.	8r	.	8r	.	.	.	.	.	.	.	.	.	.
.	.	.	8g/L	.	8bL 8f/	.	.	.	.	.	.	.	.	.	.
4r	.	.	8g/	.	8b 8f/	.	.	.	16gg\LL	.	.	.	.	.	.
.	.	.	.	.	.	.	.	.	16ff\	.	.	.	.	.	.
.	.	.	8g/J	.	8bJ 8f/	.	.	.	16ee\	.	.	.	.	.	.
.	.	.	.	.	.	.	.	.	16ff\JJ	.	.	.	.	.	.
=34	=34	=34	=34	=34	=34	=34	=34	=34	=34	=34	=34	=34	=34	=34	=34
4C/	.	.	8e/L	.	8cc/L	.	1r	.	4ee\	-cto	-son	1ryy	1ryy	1r	1r
.	.	.	8e/	.	8g/	.	.	.	.	.	.	.	.	.	.
4r	.	.	8d/	.	8f/	.	.	.	4r	.	.	.	.	.	.
.	.	.	8c/J	.	8e/J	.	.	.	.	.	.	.	.	.	.
4E\	.	.	4c/	.	4e/	.	.	.	8gg\L	et	e-	.	.	.	.
.	.	.	.	.	.	.	.	.	8ee\J	.	.	.	.	.	.
4r	.	.	4r	.	4r	.	.	.	8dd\L	spi-	-e-	.	.	.	.
.	.	.	.	.	.	.	.	.	8cc#X\J	.	.	.	.	.	.
=35	=35	=35	=35	=35	=35	=35	=35	=35	=35	=35	=35	=35	=35	=35	=35
4F\	.	.	8r	.	8r	.	1r	.	(4.dd\	-ri-	-lei-	1ryy	1ryy	1r	1r
.	.	.	8a/L	.	8dd\L	.	.	.	.	.	.	.	.	.	.
4r	.	.	8a/	.	8dd\	.	.	.	.	.	.	.	.	.	.
.	.	.	8a/J	.	8dd\J	.	.	.	8ee\)	.	.	.	.	.	.
4F\	.	.	8r	.	8r	.	.	.	8ff\L	-tu-	.	.	.	.	.
.	.	.	8a/	.	8dd\	.	.	.	8ee\J	.	.	.	.	.	.
4F#X\	.	.	8r	.	8r	.	.	.	8dd\L	-i	.	.	.	.	.
.	.	.	8a/	.	8cc\	.	.	.	8ccn\J	.	.	.	.	.	.
=36	=36	=36	=36	=36	=36	=36	=36	=36	=36	=36	=36	=36	=36	=36	=36
4G\	.	.	8r	.	8r	.	1r	.	2cc\	San-	.	1ryy	1ryy	1r	1r
.	.	.	8e/L	.	8cc\L	.	.	.	.	.	.	.	.	.	.
4GG/	.	.	8e/	.	8cc\	.	.	.	.	.	.	.	.	.	.
.	.	.	8e/J	.	8cc\J	.	.	.	.	.	.	.	.	.	.
8G\L	.	.	8d/L	.	8b\L	.	.	.	4b\	-cto	-son	.	.	.	.
8Fn\	.	.	8f/	.	8a\	.	.	.	.	.	.	.	.	.	.
8E\	.	.	8e/	.	8g\	.	.	.	4r	.	.	.	.	.	.
8D\J	.	.	8d/J	.	8f\J	.	.	.	.	.	.	.	.	.	.
=37	=37	=37	=37	=37	=37	=37	=37	=37	=37	=37	=37	=37	=37	=37	=37
!.	!	!LO:DY:a:t=for.	!	!LO:DY:a:t=for	!	!LO:DY:a:t=for	!LO:LB:g=original	!	!	!	!	!	!	!	!
8CC/L	.	f	4cc 4e 4G/	f	4cc 4e 4G/	f	4c\	Si-	4cc\	Si-	Ki-	1ryy	1ryy	4cc\	4ee\
8C/	.	.	.	.	.	.	.	.	.	.	.	.	.	.	.
8C/	.	.	4cc 4e 4G/	.	4cc 4e 4G/	.	4c\	-cut	4cc\	-cut	.	.	.	4cc\	4ee\
8C/J	.	.	.	.	.	.	.	.	.	.	.	.	.	.	.
*tremolo	*	*	*	*	*	*	*	*	*	*	*	*	*	*	*
8C/L	.	.	4cc 4e 4G/	.	4cc 4e 4G/	.	2c\	e-	2cc\	e-	-ry-	.	.	4cc\	4ee\
8C/	.	.	.	.	.	.	.	.	.	.	.	.	.	.	.
.	.	.	.	.	16qqdd/	.	.	.	.	.	.	.	.	.	.
8C/	.	.	16e/LL	.	16cc\LL	.	.	.	.	.	.	.	.	8cc\L	8ee\L
.	.	.	16d/	.	16b\	.	.	.	.	.	.	.	.	.	.
8C/J	.	.	16e/	.	16cc\	.	.	.	.	.	.	.	.	8dd\J	8ff\J
.	.	.	16f/JJ	.	16dd\JJ	.	.	.	.	.	.	.	.	.	.
=38	=38	=38	=38	=38	=38	=38	=38	=38	=38	=38	=38	=38	=38	=38	=38
!LO:LB:g=original	!	!	!LO:LB:g=original	!	!	!	!	!	!	!	!	!	!	!	!
8C\L	.	.	8g/L	.	8ee\L	.	4c\	-rat	4cc\	-rat	-e	1ryy	1ryy	4ee\	4gg\
8C\	.	.	8e/	.	8cc\	.	.	.	.	.	.	.	.	.	.
8C\	.	.	8e/	.	8g\	.	4r	.	4r	.	.	.	.	4r	4r
8C\J	.	.	8c/J	.	8e\J	.	.	.	.	.	.	.	.	.	.
!	!	!	!	!	!LO:LB:g=original	!	!	!	!	!	!	!	!	!	!
8E\L	.	.	8G/L	.	8c/L	.	2r	.	2r	.	.	.	.	2r	2r
8E\	.	.	8c/	.	8e/	.	.	.	.	.	.	.	.	.	.
8E\	.	.	8e/	.	8g/	.	.	.	.	.	.	.	.	.	.
8E\J	.	.	8g/J	.	8cc/J	.	.	.	.	.	.	.	.	.	.
=39	=39	=39	=39	=39	=39	=39	=39	=39	=39	=39	=39	=39	=39	=39	=39
*	*	*	*tremolo	*	*	*	*	*	*	*	*	*	*	*	*
8F\L	.	.	16aLL 16f/	.	4a/	.	4F\	in	4a\	in	Ky-	1ryy	1ryy	4f/	4a/
.	.	.	16a 16f/	.	.	.	.	.	.	.	.	.	.	.	.
8F\	.	.	16a 16f/	.	.	.	.	.	.	.	.	.	.	.	.
.	.	.	16a 16f/	.	.	.	.	.	.	.	.	.	.	.	.
8F\	.	.	16a 16f/	.	4ff 4a/	.	4A\	prin-	4ff\	prin-	-ri-	.	.	4a/	4ff\
.	.	.	16a 16f/	.	.	.	.	.	.	.	.	.	.	.	.
8F\J	.	.	16a 16f/	.	.	.	.	.	.	.	.	.	.	.	.
.	.	.	16aJJ 16f/	.	.	.	.	.	.	.	.	.	.	.	.
!	!	!	!	!	!	!	!	!	!LO:LB:g=original	!	!	!	!	!	!
8G\L	.	.	16bLL 16d/	.	4b 4d/	.	4G\	-ci-	4dd\	-ci-	-e-	.	.	4g/	4b\
.	.	.	16b 16d/	.	.	.	.	.	.	.	.	.	.	.	.
8G\	.	.	16b 16d/	.	.	.	.	.	.	.	.	.	.	.	.
.	.	.	16b 16d/	.	.	.	.	.	.	.	.	.	.	.	.
8G\	.	.	16b 16d/	.	4gg 4b/	.	4G\	-pi-	4b\	-pi-	-lei-	.	.	4b/	4gg\
.	.	.	16b 16d/	.	.	.	.	.	.	.	.	.	.	.	.
8G\J	.	.	16b 16d/	.	.	.	.	.	.	.	.	.	.	.	.
.	.	.	16bJJ 16d/	.	.	.	.	.	.	.	.	.	.	.	.
*Xtremolo	*	*	*Xtremolo	*	*	*	*	*	*	*	*	*	*	*	*
=40	=40	=40	=40	=40	=40	=40	=40	=40	=40	=40	=40	=40	=40	=40	=40
4c\	.	.	8ccL 8e 8G/	.	8ee\L	.	4c\	-o	4ee\	-o	-son	1ryy	1ryy	4cc\	4ee\
.	.	.	8g/	.	8cc\	.	.	.	.	.	.	.	.	.	.
4r	.	.	8e/	.	8g\	.	4r	.	4r	.	.	.	.	4r	4r
.	.	.	8c/J	.	8e\J	.	.	.	.	.	.	.	.	.	.
2r	.	.	8G/L	.	8c/L	.	4r	.	4r	.	.	.	.	2r	2r
.	.	.	8c/	.	8e/	.	.	.	.	.	.	.	.	.	.
.	.	.	8e/	.	8g/	.	4E\	et	4cc\	et	e-	.	.	.	.
.	.	.	8g/J	.	8cc/J	.	.	.	.	.	.	.	.	.	.
=41	=41	=41	=41	=41	=41	=41	=41	=41	=41	=41	=41	=41	=41	=41	=41
*tremolo	*	*	*tremolo	*	*	*	*	*	*	*	*	*	*	*	*
8F\L	.	.	16aLL 16f/	.	4a/	.	4F\	nunc	4a\	nunc	-e-	1ryy	1ryy	4f/	4a/
.	.	.	16a 16f/	.	.	.	.	.	.	.	.	.	.	.	.
8F\	.	.	16a 16f/	.	.	.	.	.	.	.	.	.	.	.	.
.	.	.	16a 16f/	.	.	.	.	.	.	.	.	.	.	.	.
8F\	.	.	16a 16f/	.	4ff 4a/	.	4F\	et	4ff\	et	.	.	.	4a/	4ff\
.	.	.	16a 16f/	.	.	.	.	.	.	.	.	.	.	.	.
8F\J	.	.	16a 16f/	.	.	.	.	.	.	.	.	.	.	.	.
.	.	.	16aJJ 16f/	.	.	.	.	.	.	.	.	.	.	.	.
8G\L	.	.	16bLL 16d/	.	4b 4d/	.	2G\	Se(m)-	(4dd\	Sem-	-lei-	.	.	4g/	4b\
.	.	.	16b 16d/	.	.	.	.	.	.	.	.	.	.	.	.
8G\	.	.	16b 16d/	.	.	.	.	.	.	.	.	.	.	.	.
.	.	.	16b 16d/	.	.	.	.	.	.	.	.	.	.	.	.
8G\	.	.	16b 16d/	.	4gg 4b/	.	.	.	4b\)	.	.	.	.	4b/	4gg\
.	.	.	16b 16d/	.	.	.	.	.	.	.	.	.	.	.	.
8G\J	.	.	16b 16d/	.	.	.	.	.	.	.	.	.	.	.	.
.	.	.	16bJJ 16d/	.	.	.	.	.	.	.	.	.	.	.	.
*Xtremolo	*	*	*Xtremolo	*	*	*	*	*	*	*	*	*	*	*	*
=42	=42	=42	=42	=42	=42	=42	=42	=42	=42	=42	=42	=42	=42	=42	=42
!	!	!	!	!	!	!	!	!	!	!	!	!	!	!LO:LB:g=original	!
4C/	.	.	4cc 4e 4G/	.	4ee 4cc/	.	4c\	-per	4cc\	-per	-son	1ryy	1ryy	4cc\	4ee\
4C/	.	.	4cc 4e 4G/	.	4cc 4e 4G/	.	4r	.	4r	.	.	.	.	4cc\	4ee\
4C/	.	.	4cc 4e 4G/	.	4cc 4e 4G/	.	2r	.	2r	.	.	.	.	4cc\	4ee\
4r	.	.	4r	.	4r	.	.	.	.	.	.	.	.	4r	4r
=43	=43	=43	=43	=43	=43	=43	=43	=43	=43	=43	=43	=43	=43	=43	=43
*tremolo	*	*	*	*	*tremolo	*	*	*	*	*	*	*	*	*	*
!	!	!	!	!	!	!	!	!	!	!	!	!	!	!	!LO:LB:g=original
8C\L	5_ 3_	.	16c/LL	.	16ccc\LL	.	2c\	Et	2ee\	et	Ky-	1ryy	1ryy	1cc	1ee
.	.	.	16e/	.	16ccc\	.	.	.	.	.	.	.	.	.	.
8C\	x x	.	16g/	.	16ccc\	.	.	.	.	.	.	.	.	.	.
.	.	.	16e/JJ	.	16ccc\JJ	.	.	.	.	.	.	.	.	.	.
*	*	*	*rep	*	*	*	*	*	*	*	*	*	*	*	*
8C\	x x	.	16c/LL	.	16gg\LL	.	.	.	.	.	.	.	.	.	.
.	.	.	16e/	.	16gg\	.	.	.	.	.	.	.	.	.	.
8C\J	x x	.	16g/	.	16gg\	.	.	.	.	.	.	.	.	.	.
.	.	.	16e/JJ	.	16gg\JJ	.	.	.	.	.	.	.	.	.	.
*	*	*	*Xrep	*	*	*	*	*	*	*	*	*	*	*	*
*	*	*	*rep	*	*	*	*	*	*	*	*	*	*	*	*
8C\L	x x	.	16c/LL	.	16ee\LL	.	2c\	in	2ee\	in	-ri-	.	.	.	.
.	.	.	16e/	.	16ee\	.	.	.	.	.	.	.	.	.	.
8C\	x x	.	16g/	.	16ee\	.	.	.	.	.	.	.	.	.	.
.	.	.	16e/JJ	.	16ee\JJ	.	.	.	.	.	.	.	.	.	.
*	*	*	*Xrep	*	*	*	*	*	*	*	*	*	*	*	*
*	*	*	*rep	*	*	*	*	*	*	*	*	*	*	*	*
8C\	x x	.	16c/LL	.	16cc\LL	.	.	.	.	.	.	.	.	.	.
.	.	.	16e/	.	16cc\	.	.	.	.	.	.	.	.	.	.
8C\J	x x	.	16g/	.	16cc\	.	.	.	.	.	.	.	.	.	.
.	.	.	16e/JJ	.	16cc\JJ	.	.	.	.	.	.	.	.	.	.
*	*	*	*Xrep	*	*Xtremolo	*	*	*	*	*	*	*	*	*	*
=44	=44	=44	=44	=44	=44	=44	=44	=44	=44	=44	=44	=44	=44	=44	=44
8D\L	4 3	.	16d/LL	.	8cc\L	.	8c\	et	8ee\	et	-e	1ryy	1ryy	8cc\L	8ee\L
.	.	.	16f/	.	.	.	.	.	.	.	.	.	.	.	.
8D\	.	.	16g/	.	8b\	.	8d\	in	8ff\	in	e-	.	.	8dd\	8ff\
.	.	.	16f/JJ	.	.	.	.	.	.	.	.	.	.	.	.
*	*	*	*rep	*	*	*	*	*	*	*	*	*	*	*	*
8D\	.	.	16d/LL	.	8b\	.	8d\	se-	8ff\	se-	-lei-	.	.	8dd\	8ff\
.	.	.	16f/	.	.	.	.	.	.	.	.	.	.	.	.
8D\J	.	.	16g/	.	8b\J	.	8d\	-cu-	8ff\	-cu-	.	.	.	8dd\J	8ff\J
.	.	.	16f/JJ	.	.	.	.	.	.	.	.	.	.	.	.
*	*	*	*Xrep	*	*	*	*	*	*	*	*	*	*	*	*
*	*	*	*rep	*	*	*	*	*	*	*	*	*	*	*	*
8GG/L	7 3	.	16d/LL	.	16b\LL	.	4d\	-la	4ff\	-la	-son	.	.	4dd\	4ff\
.	.	.	16f/	.	16gg\	.	.	.	.	.	.	.	.	.	.
8GG/	.	.	16g/	.	16ff#X\	.	.	.	.	.	.	.	.	.	.
.	.	.	16f/JJ	.	16gg\JJ	.	.	.	.	.	.	.	.	.	.
*	*	*	*Xrep	*	*	*	*	*	*	*	*	*	*	*	*
*	*	*	*rep	*	*	*	*	*	*	*	*	*	*	*	*
8GG/	.	.	16d/LL	.	16aa\LL	.	4r	.	4r	.	.	.	.	4r	4r
.	.	.	16f/	.	16gg\	.	.	.	.	.	.	.	.	.	.
8GG/J	.	.	16g/	.	16ff#X\	.	.	.	.	.	.	.	.	.	.
.	.	.	16f/JJ	.	16gg\JJ	.	.	.	.	.	.	.	.	.	.
*	*	*	*Xrep	*	*	*	*	*	*	*	*	*	*	*	*
=45	=45	=45	=45	=45	=45	=45	=45	=45	=45	=45	=45	=45	=45	=45	=45
*	*	*	*	*	*tremolo	*	*	*	*	*	*	*	*	*	*
!	!	!	!LO:TX:t=P:problem=takty 45-46 zapisane repetycją	!	!	!	!	!	!	!	!	!	!	!	!
8C\L	5 3	.	16c/LL	.	16ccc\LL	.	4c\	Se-	4ee\	se-	e-	1ryy	1ryy	1cc	1ee
.	.	.	16e/	.	16ccc\	.	.	.	.	.	.	.	.	.	.
8C\	.	.	16g/	.	16ccc\	.	.	.	.	.	.	.	.	.	.
.	.	.	16e/JJ	.	16ccc\JJ	.	.	.	.	.	.	.	.	.	.
*	*	*	*rep	*	*	*	*	*	*	*	*	*	*	*	*
8C\	.	.	16c/LL	.	16gg\LL	.	4c\	-cu-	4ee\	-cu-	-e-	.	.	.	.
.	.	.	16e/	.	16gg\	.	.	.	.	.	.	.	.	.	.
8C\J	.	.	16g/	.	16gg\	.	.	.	.	.	.	.	.	.	.
.	.	.	16e/JJ	.	16gg\JJ	.	.	.	.	.	.	.	.	.	.
*	*	*	*Xrep	*	*	*	*	*	*	*	*	*	*	*	*
*	*	*	*rep	*	*	*	*	*	*	*	*	*	*	*	*
8C\L	7 3	.	16c/LL	.	16ee\LL	.	4c\	-lo-	4ee\	-lo-	-lei-	.	.	.	.
.	.	.	16e/	.	16ee\	.	.	.	.	.	.	.	.	.	.
8C\	.	.	16g/	.	16ee\	.	.	.	.	.	.	.	.	.	.
.	.	.	16e/JJ	.	16ee\JJ	.	.	.	.	.	.	.	.	.	.
*	*	*	*Xrep	*	*	*	*	*	*	*	*	*	*	*	*
*	*	*	*rep	*	*	*	*	*	*	*	*	*	*	*	*
8C\	.	.	16c/LL	.	16cc\LL	.	4c\	-rum	4ee\	-rum	.	.	.	.	.
.	.	.	16e/	.	16cc\	.	.	.	.	.	.	.	.	.	.
8C\J	.	.	16g/	.	16cc\	.	.	.	.	.	.	.	.	.	.
.	.	.	16e/JJ	.	16cc\JJ	.	.	.	.	.	.	.	.	.	.
*	*	*	*Xrep	*	*Xtremolo	*	*	*	*	*	*	*	*	*	*
=46	=46	=46	=46	=46	=46	=46	=46	=46	=46	=46	=46	=46	=46	=46	=46
!	!	!	!	!	!	!	!LO:LB:g=original	!	!	!	!	!	!	!	!
!	!	!	!	!	!LO:LB:g=original	!	!	!	!	!	!	!	!	!	!
8D\L	4 3	.	16d/LL	.	8cc\L	.	8c\	et	8ee\	et	.	1ryy	1ryy	8cc\L	8ee\L
.	.	.	16f/	.	.	.	.	.	.	.	.	.	.	.	.
8D\	.	.	16g/	.	8b\	.	8d\	in	8ff\	in	.	.	.	8dd\	8ff\
.	.	.	16f/JJ	.	.	.	.	.	.	.	.	.	.	.	.
*	*	*	*rep	*	*	*	*	*	*	*	*	*	*	*	*
8D\	.	.	16d/LL	.	8b\	.	8d\	Se-	8ff\	se-	.	.	.	8dd\	8ff\
.	.	.	16f/	.	.	.	.	.	.	.	.	.	.	.	.
8D\J	.	.	16g/	.	8b\J	.	8d\	-cu-	8ff\	-cu-	.	.	.	8dd\J	8ff\J
.	.	.	16f/JJ	.	.	.	.	.	.	.	.	.	.	.	.
*	*	*	*Xrep	*	*	*	*	*	*	*	*	*	*	*	*
*	*	*	*rep	*	*	*	*	*	*	*	*	*	*	*	*
8GG/L	7 3	.	16d/LL	.	16b\LL	.	4d\	-la	4ff\	-la	-son	.	.	4dd\	4ff\
.	.	.	16f/	.	16gg\	.	.	.	.	.	.	.	.	.	.
8GG/	.	.	16g/	.	16ff#X\	.	.	.	.	.	.	.	.	.	.
.	.	.	16f/JJ	.	16gg\JJ	.	.	.	.	.	.	.	.	.	.
*	*	*	*Xrep	*	*	*	*	*	*	*	*	*	*	*	*
*	*	*	*rep	*	*	*	*	*	*	*	*	*	*	*	*
8GG/	.	.	16d/LL	.	16aa\LL	.	4r	.	4r	.	.	.	.	4r	4r
.	.	.	16f/	.	16gg\	.	.	.	.	.	.	.	.	.	.
8GG/J	.	.	16g/	.	16ff#X\	.	.	.	.	.	.	.	.	.	.
.	.	.	16f/JJ	.	16gg\JJ	.	.	.	.	.	.	.	.	.	.
*	*	*	*Xrep	*	*	*	*	*	*	*	*	*	*	*	*
=47	=47	=47	=47	=47	=47	=47	=47	=47	=47	=47	=47	=47	=47	=47	=47
*	*	*	*tremolo	*	*	*	*	*	*	*	*	*	*	*	*
!	!	!	!	!	!	!	!	!	!LO:LB:g=original	!	!	!	!	!	!
8C\L	.	.	16ccLL 16e/	.	8ee\L	.	2c\	Se-	2ee\	se-	e-	1ryy	1ryy	2cc\	2ee\
.	.	.	16cc 16e/	.	.	.	.	.	.	.	.	.	.	.	.
8C\	.	.	16cc 16e/	.	8cc\	.	.	.	.	.	.	.	.	.	.
.	.	.	16cc 16e/	.	.	.	.	.	.	.	.	.	.	.	.
8C\	.	.	16cc 16e/	.	8b\	.	.	.	.	.	.	.	.	.	.
.	.	.	16cc 16e/	.	.	.	.	.	.	.	.	.	.	.	.
8C\J	.	.	16cc 16e/	.	8cc\J	.	.	.	.	.	.	.	.	.	.
.	.	.	16ccJJ 16e/	.	.	.	.	.	.	.	.	.	.	.	.
8D\L	.	.	16bLL 16f/	.	8ff\L	.	2B\	-cu-	2ff\	-cu-	-e-	.	.	2cc\	2ff\
.	.	.	16b 16f/	.	.	.	.	.	.	.	.	.	.	.	.
8D\	.	.	16b 16f/	.	8dd\	.	.	.	.	.	.	.	.	.	.
.	.	.	16b 16f/	.	.	.	.	.	.	.	.	.	.	.	.
8D\	.	.	16b 16f/	.	8b\	.	.	.	.	.	.	.	.	.	.
.	.	.	16b 16f/	.	.	.	.	.	.	.	.	.	.	.	.
8D\J	.	.	16b 16f/	.	8g\J	.	.	.	.	.	.	.	.	.	.
.	.	.	16bJJ 16f/	.	.	.	.	.	.	.	.	.	.	.	.
=48	=48	=48	=48	=48	=48	=48	=48	=48	=48	=48	=48	=48	=48	=48	=48
8E\L	.	.	16ccLL 16g/	.	4.gg\	.	2c\	-lo-	2gg\	-lo-	.	1ryy	1ryy	2cc\	2gg\
.	.	.	16cc 16g/	.	.	.	.	.	.	.	.	.	.	.	.
8E\	.	.	16cc 16g/	.	.	.	.	.	.	.	.	.	.	.	.
.	.	.	16cc 16g/	.	.	.	.	.	.	.	.	.	.	.	.
8E\	.	.	16cc 16g/	.	.	.	.	.	.	.	.	.	.	.	.
.	.	.	16cc 16g/	.	.	.	.	.	.	.	.	.	.	.	.
8E\J	.	.	16cc 16g/	.	16ff#X\LL	.	.	.	.	.	.	.	.	.	.
.	.	.	16ccJJ 16g/	.	16gg\JJ	.	.	.	.	.	.	.	.	.	.
*Xtremolo	*	*	*	*	*	*	*	*	*	*	*	*	*	*	*
8F\L	.	.	16ddLL 16f/	.	8aa\L	.	2c\	-rum	2aa\	-rum	-lei-	.	.	2cc\	2aa\
.	.	.	16dd 16f/	.	.	.	.	.	.	.	.	.	.	.	.
8F\	.	.	16dd 16f/	.	8ee\	.	.	.	.	.	.	.	.	.	.
.	.	.	16dd 16f/	.	.	.	.	.	.	.	.	.	.	.	.
!	!	!	!	!	!LO:SIC:v:s=8ff\	!	!	!	!	!	!	!	!	!	!
8A\	.	.	16dd 16f/	.	8ff#\	.	.	.	.	.	.	.	.	.	.
.	.	.	16dd 16f/	.	.	.	.	.	.	.	.	.	.	.	.
8A\J	.	.	16dd 16f/	.	8dd\J	.	.	.	.	.	.	.	.	.	.
.	.	.	16ddJJ 16f/	.	.	.	.	.	.	.	.	.	.	.	.
=49	=49	=49	=49	=49	=49	=49	=49	=49	=49	=49	=49	=49	=49	=49	=49
*tremolo	*	*	*	*	*	*	*	*	*	*	*	*	*	*	*
!	!	!	!LO:LB:g=original	!	!	!	!	!	!	!	!	!	!	!	!
8G\L	.	.	16ccLL 16e/	.	2g/	.	(2c\	a-	(2ee\	a-	.	1ryy	1ryy	2cc\	2ee\
.	.	.	16cc 16e/	.	.	.	.	.	.	.	.	.	.	.	.
8G\	.	.	16cc 16e/	.	.	.	.	.	.	.	.	.	.	.	.
.	.	.	16cc 16e/	.	.	.	.	.	.	.	.	.	.	.	.
8G\	.	.	16cc 16e/	.	.	.	.	.	.	.	.	.	.	.	.
.	.	.	16cc 16e/	.	.	.	.	.	.	.	.	.	.	.	.
8G\J	.	.	16cc 16e/	.	.	.	.	.	.	.	.	.	.	.	.
.	.	.	16ccJJ 16e/	.	.	.	.	.	.	.	.	.	.	.	.
8GG/L	.	.	16bLL 16d/	.	2ddT\	.	2G\)	.	2dd\)	.	.	.	.	2b\	2dd\
.	.	.	16b 16d/	.	.	.	.	.	.	.	.	.	.	.	.
8GG/	.	.	16b 16d/	.	.	.	.	.	.	.	.	.	.	.	.
.	.	.	16b 16d/	.	.	.	.	.	.	.	.	.	.	.	.
8GG/	.	.	16b 16d/	.	.	.	.	.	.	.	.	.	.	.	.
.	.	.	16b 16d/	.	.	.	.	.	.	.	.	.	.	.	.
8GG/J	.	.	16b 16d/	.	.	.	.	.	.	.	.	.	.	.	.
.	.	.	16bJJ 16d/	.	.	.	.	.	.	.	.	.	.	.	.
*XXtremolo	*	*	*Xtremolo	*	*	*	*	*	*	*	*	*	*	*	*
=50	=50	=50	=50	=50	=50	=50	=50	=50	=50	=50	=50	=50	=50	=50	=50
4C/	.	.	4cc 4e 4G/	.	4cc\	.	4C/	-men	4cc\	-men	-son	1ryy	1ryy	4cc\	4cc\
!	!	!	!	!	!	!LO:DY:b:t=p.	!	!	!	!	!	!	!	!	!
!	!	!	!	!LO:DY:b:t=p.	!	!	!	!	!	!	!	!	!	!	!
4r	.	.	4f/	p	4a/	p	4r	.	4r	.	.	.	.	4ff\	4aa\
2r	.	.	4e/	.	4g/	.	2r	.	2r	.	.	.	.	4ee\	4gg\
.	.	.	4d#X/	.	4f#X/	.	.	.	.	.	.	.	.	4dd#X\	4ff#X\
=51	=51	=51	=51	=51	=51	=51	=51	=51	=51	=51	=51	=51	=51	=51	=51
4r	.	.	4e/	.	4g/	.	4r	.	4r	.	.	1ryy	1ryy	4ee\	4gg\
*	*	*	*tremolo	*	*tremolo	*	*	*	*	*	*	*	*	*	*
!	!	!	!	!	!	!LO:DY:b:t=for	!	!	!	!	!	!	!	!	!
!	!	!	!	!LO:DY:b:t=for	!	!	!	!	!	!	!	!	!	!	!
4E\	6	.	16eLL 16G/	f	16g/LL	f	(4E\	a-	(4cc\	a-	e-	.	.	4e/	4g/
.	.	.	16e 16G/	.	16g/	.	.	.	.	.	.	.	.	.	.
.	.	.	16e 16G/	.	16g/	.	.	.	.	.	.	.	.	.	.
.	.	.	16eJJ 16G/	.	16g/JJ	.	.	.	.	.	.	.	.	.	.
4F\	6	.	16fLL 16G/	.	16a/LL	.	4F\	.	4dd\	.	-lei-	.	.	4f/	4a/
.	.	.	16f 16G/	.	16a/	.	.	.	.	.	.	.	.	.	.
.	.	.	16f 16G/	.	16a/	.	.	.	.	.	.	.	.	.	.
.	.	.	16fJJ 16G/	.	16a/JJ	.	.	.	.	.	.	.	.	.	.
4G\	3	.	16dLL 16G/	.	16b/LL	.	4G\)	.	4b\)	.	.	.	.	4d/	4b/
.	.	.	16d 16G/	.	16b/	.	.	.	.	.	.	.	.	.	.
.	.	.	16d 16G/	.	16b/	.	.	.	.	.	.	.	.	.	.
.	.	.	16dJJ 16G/	.	16b/JJ	.	.	.	.	.	.	.	.	.	.
*	*	*	*Xtremolo	*	*Xtremolo	*	*	*	*	*	*	*	*	*	*
=52	=52	=52	=52	=52	=52	=52	=52	=52	=52	=52	=52	=52	=52	=52	=52
!LO:LB:g=original	!	!	!	!	!	!	!	!	!	!	!	!	!	!	!
4C/	.	.	4e 4G/	.	4cc\	.	4c\	-men	4cc\	-men	-son	1ryy	1ryy	4e/	4cc\
!	!	!	!	!	!	!LO:DY:b:t=p.	!	!	!	!	!	!	!	!	!
!	!	!	!	!LO:DY:b:t=p.	!	!	!	!	!	!	!	!	!	!	!
4r	.	.	4f/	p	4a/	p	4r	.	4r	.	.	.	.	4ff\	4aa\
2r	.	.	4e/	.	4g/	.	2r	.	2r	.	.	.	.	4ee\	4gg\
.	.	.	4d#X/	.	4f#X/	.	.	.	.	.	.	.	.	4dd#X\	4ff#X\
=53	=53	=53	=53	=53	=53	=53	=53	=53	=53	=53	=53	=53	=53	=53	=53
4r	.	.	4e/	.	4g/	.	4r	.	4r	.	.	1ryy	1ryy	4ee\	4gg\
*	*	*	*tremolo	*	*tremolo	*	*	*	*	*	*	*	*	*	*
!	!	!	!	!	!	!LO:DY:b:t=for	!	!	!	!	!	!	!	!	!
!	!	!	!	!LO:DY:b:t=for	!	!	!	!	!	!	!	!	!	!	!
4E\	6	.	16eLL 16G/	f	16g/LL	f	(4E\	a-	(4cc\	a-	e-	.	.	4e/	4g/
.	.	.	16e 16G/	.	16g/	.	.	.	.	.	.	.	.	.	.
.	.	.	16e 16G/	.	16g/	.	.	.	.	.	.	.	.	.	.
.	.	.	16eJJ 16G/	.	16g/JJ	.	.	.	.	.	.	.	.	.	.
4F\	6	.	16fLL 16G/	.	16a/LL	.	4F\	.	4dd\	.	-lei-	.	.	4f/	4a/
.	.	.	16f 16G/	.	16a/	.	.	.	.	.	.	.	.	.	.
.	.	.	16f 16G/	.	16a/	.	.	.	.	.	.	.	.	.	.
.	.	.	16fJJ 16G/	.	16a/JJ	.	.	.	.	.	.	.	.	.	.
4G\	3	.	16dLL 16G/	.	16b/LL	.	4G\)	.	4b\)	.	.	.	.	4d/	4b/
.	.	.	16d 16G/	.	16b/	.	.	.	.	.	.	.	.	.	.
.	.	.	16d 16G/	.	16b/	.	.	.	.	.	.	.	.	.	.
.	.	.	16dJJ 16G/	.	16b/JJ	.	.	.	.	.	.	.	.	.	.
*	*	*	*Xtremolo	*	*Xtremolo	*	*	*	*	*	*	*	*	*	*
=54	=54	=54	=54	=54	=54	=54	=54	=54	=54	=54	=54	=54	=54	=54	=54
!	!	!	!	!	!LO:LB:g=original	!	!	!	!	!	!	!	!	!	!
4C/	.	.	4e 4G/	.	4cc 4e 4G/	.	4c\	-men	4cc\	-me	-son	1ryy	1ryy	4e/	4cc\
4r	.	.	4r	.	4r	.	4r	.	4r	.	.	.	.	4r	4r
4G\	.	.	4g 4G/	.	4gg 4b 4d 4G/	.	4G\	a-	4dd\	a-	lei-	.	.	4b\	4dd\
4r	.	.	4r	.	4r	.	4r	.	4r	.	.	.	.	4r	4r
=55	=55	=55	=55	=55	=55	=55	=55	=55	=55	=55	=55	=55	=55	=55	=55
4c\	.	.	2e 2G/	.	2ccc 2ee\	.	2c\	-men	2ee\	-men	son	1ryy	1ryy	2cc\	2ee\
4r	.	.	.	.	.	.	.	.	.	.	.	.	.	.	.
2r	.	.	2r	.	2r	.	2r	.	2r	.	.	.	.	2r	2r
==	==	==	==	==	==	==	==	==	==	==	==	==	==	==	==
*-	*-	*-	*-	*-	*-	*-	*-	*-	*-	*-	*-	*-	*-	*-	*-
!!!system-decoration: [(g1)][(g2)][(g3)][(g4)]s9
!!!ENC: Anastazja Marusiak
!!!END: 2021-12-02
!!!ENC: Kamil Watkowski
!!!END: 2021-12-15
